<?xml version="1.0" encoding="UTF-8"?>
<map version="1.4" tiledversion="1.4.3" orientation="orthogonal" renderorder="right-down" width="20" height="60" tilewidth="21" tileheight="21" infinite="0" nextlayerid="4" nextobjectid="4">
 <tileset firstgid="1" source="tilemap_packed.tsx"/>
 <layer id="1" name="Kachelebene 1" width="20" height="60">
  <data encoding="csv">
727,728,728,728,728,728,728,728,728,728,728,728,728,728,728,728,728,728,728,729,
727,0,0,0,0,0,0,0,0,0,0,0,0,0,0,0,0,0,0,729,
727,0,0,0,0,0,0,0,0,0,0,0,0,0,0,0,0,0,0,729,
727,0,0,0,0,0,0,0,0,0,0,0,0,0,0,0,0,0,0,729,
727,0,0,0,0,0,0,0,0,0,0,0,0,0,0,0,0,0,0,729,
727,0,0,0,0,0,0,0,0,0,0,0,0,0,0,0,0,0,0,729,
727,0,0,0,0,0,0,0,0,0,0,0,0,0,0,0,0,0,0,729,
727,0,0,0,0,0,0,0,0,0,0,0,0,0,0,0,0,0,0,729,
727,0,0,0,0,0,0,0,0,0,0,0,0,0,0,0,0,0,0,729,
727,0,0,0,0,0,0,0,0,0,0,0,0,0,0,0,0,0,0,729,
727,0,0,0,0,0,0,0,0,0,0,0,0,0,0,0,0,0,0,729,
727,0,0,0,0,0,0,0,0,0,0,0,0,0,0,0,0,0,0,729,
727,0,0,0,0,0,0,0,0,0,0,0,0,0,0,0,0,0,0,729,
727,0,0,0,0,0,0,0,0,0,0,0,0,0,0,0,0,0,0,729,
727,0,0,0,0,0,0,0,0,0,0,0,0,0,0,0,0,0,0,729,
727,0,0,0,0,0,0,0,0,0,0,0,0,0,0,0,0,0,0,729,
727,0,0,0,0,0,0,0,0,0,0,0,0,0,0,0,0,0,0,729,
727,0,0,0,0,0,0,0,0,0,0,0,0,0,0,0,0,0,0,729,
727,0,0,0,0,0,0,0,0,0,0,0,0,0,0,0,0,0,0,729,
727,0,0,0,0,0,0,0,0,0,0,0,0,0,0,0,0,0,0,729,
727,0,0,0,0,0,0,0,0,0,0,0,0,0,0,0,0,0,0,729,
727,0,0,0,0,0,0,0,0,0,0,0,0,0,0,0,0,0,0,729,
727,0,0,0,0,0,0,0,0,0,0,0,0,0,0,0,0,0,0,729,
727,0,0,0,0,0,0,0,0,0,0,0,0,0,0,0,0,0,0,729,
727,0,0,0,0,0,0,0,0,0,0,0,0,0,0,0,0,0,0,729,
727,0,0,0,0,0,0,0,0,0,0,0,0,0,0,0,0,0,0,729,
727,0,0,0,0,0,0,0,0,0,0,0,0,0,0,0,0,0,0,729,
727,0,0,0,0,0,0,0,0,0,0,0,0,0,0,0,0,0,0,729,
727,0,0,0,0,0,0,0,0,0,0,0,0,0,0,0,0,0,0,729,
727,0,0,0,0,0,0,0,0,0,0,0,0,0,0,0,0,0,0,729,
727,0,0,0,0,0,0,0,0,0,0,0,0,0,0,0,0,0,0,729,
727,0,0,0,0,0,0,0,0,0,0,0,0,0,0,0,0,0,0,729,
727,0,0,0,0,0,0,0,0,0,0,0,0,0,0,0,0,0,0,729,
727,0,0,0,0,0,0,0,0,0,0,0,0,0,0,0,0,0,0,729,
727,0,0,0,0,0,0,0,0,0,0,0,0,0,0,0,0,0,0,729,
727,0,0,0,0,0,0,0,0,0,0,0,0,0,0,0,0,0,0,729,
727,0,0,0,0,0,0,0,0,0,0,0,0,0,0,0,0,0,0,729,
727,0,0,0,0,0,0,0,0,0,0,0,0,0,0,0,0,0,0,729,
727,0,0,0,0,0,0,0,0,0,0,0,0,0,0,0,0,0,0,729,
727,0,0,0,0,0,0,0,0,0,0,0,0,0,0,0,0,0,0,729,
727,0,0,0,0,0,0,0,0,0,0,0,0,0,0,0,0,0,0,729,
727,0,0,0,0,0,0,0,0,0,0,0,0,0,0,0,0,0,0,729,
727,0,0,0,0,0,0,0,0,0,0,0,0,0,0,0,0,0,0,729,
727,0,316,0,0,0,0,0,0,0,0,0,0,0,0,0,0,0,0,729,
727,184,184,184,0,0,0,0,0,0,0,0,0,0,0,0,0,0,0,729,
727,213,213,213,0,0,574,574,0,0,0,0,0,0,0,0,0,0,0,729,
727,213,213,213,124,124,124,124,124,124,0,0,0,0,0,0,0,0,0,729,
727,0,0,0,0,0,0,0,0,0,0,0,124,124,124,0,0,0,0,729,
727,0,0,0,0,0,0,0,0,0,0,0,0,572,572,0,0,0,284,729,
727,0,0,0,0,0,0,0,0,0,0,0,0,0,0,0,0,0,123,729,
727,0,0,0,0,0,123,124,124,0,0,0,0,0,0,0,0,123,153,729,
727,124,124,0,0,0,0,0,0,0,0,124,124,124,124,0,0,153,153,729,
727,0,0,0,0,0,0,576,0,0,0,153,153,153,153,0,0,153,153,729,
727,0,0,0,0,124,124,124,0,0,0,153,153,153,153,0,0,153,153,729,
727,0,0,0,0,0,0,0,0,0,0,0,0,0,0,0,0,0,0,729,
727,124,124,0,0,0,0,0,0,0,0,0,0,0,0,0,0,0,0,729,
727,0,0,0,0,0,0,0,0,0,0,0,0,0,0,0,0,0,0,729,
124,124,124,124,124,124,124,124,124,124,124,124,124,124,124,124,124,124,124,124,
153,153,153,153,153,153,153,153,153,153,153,153,153,153,153,153,153,153,153,153,
153,153,153,153,153,153,153,153,153,153,153,153,153,153,153,153,153,153,153,153
</data>
 </layer>
 <objectgroup id="2" name="Objektebene 1">
  <object id="1" name="Player" type="player" x="124.75" y="1196.5">
   <point/>
  </object>
  <object id="2" name="Geist" type="ghost" x="294" y="985.5">
   <properties>
    <property name="limit" type="object" value="3"/>
   </properties>
   <point/>
  </object>
 </objectgroup>
 <objectgroup id="3" name="Objektebene 2">
  <object id="3" x="252.25" y="986.25">
   <point/>
  </object>
 </objectgroup>
</map>
